X: 19885
T: Jig De Girafe
R: jig
M: 6/8
K: Gdorian
G,B,D GAc|dcA GA=B|cFF FEF|AGF DCA,|
G,=B,D GFD|CDF A,3|Ace dcA|1 GAF DCA,:|2 GAF G>AB/c/||
dgg gfd|fga bag|agf c3|FGA cde|
dgg gfd|cdf A3|Ace dcA|1 GAF G>AB/c/:|2 GAF DCA,||G,6||

